X:1
T:Gott Vatter uns
T:Gott Vatter uns
T:Adam Gumpelzhaimer
T:Source : Teutsche Geisliche Lieder mit 3 stimmen---Augsburg---V.Schönigk---1591. Editor : André Vierendeels (24/06/16).
T:Notes : Original clefs : C1, C1, C3 Text Middle German
T:©
T:©
T:©
T:©
T:©
C:Adam Gumpelzhaimer
Z:©
%%score [ 1 2 3 ]
L:1/8
Q:1/4=120
M:4/4
K:C
V:1 treble nm="Soprano 1" snm="S 1"
V:2 treble nm="Soprano 2" snm="S 2"
V:3 treble-8 nm="Tenor" snm="T"
V:1
 B4 c4 | d2 e4 f2 | e2 c2 B2 e2 | g3 f e3 d | c2 BA B2 A2 | z2 e2 g3 f | e6 d2 | cB A4 ^G2 | %8
w: Gott Vat-|ter uns sein|Son für- stelt, dasz|wir sein lieb dran|ken- * * * nen,|dasz wir sein|Lieb dran|ken- * * *|
w: Und macht|uns se- lig|durch sein Wort, dem|solln wir glau- ben|al- * * * le,|weils uns wei-|set des|Le- * * bens|
[M:2/4] A4 |[M:4/4] B4 c4 | d2 e4 f2 | e2 c2 B2 e2 | g3 f e3 d | c2 BA B2 A2 | z2 e2 g3 f | e6 d2 | %16
w: nen,|der ist|der grosz und|star- cke held, wie|in die schrifft thut|nen- * * * nen,|wie in die|schrifft thut|
w: pfort,|und macht|uns se- lig|durch sein Wort, dem|solln wir glau- ben|al- * * * le,|weils uns wei-|set des|
 cB A4 ^G2 |[M:2/4] A2 A2 |:[M:4/4] B2 c2 d4 | A2 d2 d2 c2 | d4 z2 d2 | fefg agfe | d2 d2 e4 | %23
w: nen- * * *|nen, der|mit dem Zeü-|fel zu fel- de|ligt, zu|fel- * * * * * * *|* de ligt,|
w: le- * * bens|pfort, dar-|ein _ wir|gehn mit schal- *|le, und|sin- * * * * * * *|* gen him|
 z2 e2 d2 c2 | B2 A2 G2 G2 | A2 f2 ed d2- |1 d2 ^c2 d2 A2 :|2 d2 ^c2 d4 |: e6 d2- | d2 c4 B2- | %30
w: den Sig be-|helt so offt er|kriegt, so offt _ _|_ er kriegt, der|(offt) er kriegt,|schafft un-|* sern Gren-|
w: weil er uns|hat ge- liebt al-|so, Al- le- * *|* lu- ja, dar|(le)- lu- ja,|sein Blut|_ für uns|
 B2 A2 ^G2 A2- | A2 ^G2 A4 |] %32
w: * tzen fri- *|* * de.|
w: _ ver- gos- *|* * sen.|
V:2
 ^G4 A4 | ^G4 A2 F2 | G2 A2 ^G4 | z2 e2 g3 f | e4 d4 | c2 BA B4 | c2 e2 g3 f | e2 c2 B4 | %8
w: Gott Vat-|ter uns sein|Son für- stelt,|dasz wir sein|lieb dran|ken- * * *|nen, dasz wir sein|lieb dran ken-|
w: Und macht|uns se- lig|durch sein Wort,|dem solln wir|glau- ben|al _ _ _|le, uns wei- set|des Le- bens|
[M:2/4] c4 |[M:4/4] ^G4 A4 | ^G4 A2 F2 | G2 A2 ^G4 | z2 e2 g3 f | e4 d4 | c2 BA B4 | c2 e2 g3 f | %16
w: nen,|der ist|der grosz und|star- cke held,|wie in die|schrifft thut|nen- * * *|nen, wie in die|
w: pfort,|und macht|uns se- lig|durch sein Wort,|dem solln wir|glau- ben|al- * * *|le, uns wei- set|
 e2 c2 B4 |[M:2/4] c4 |:[M:4/4] z2 A2 B2 c2 | d4 G4 | z2 B2 AGAB | c3 B AB c2- | c2 B2 c2 e2 | %23
w: schrifft thut nen-|nen,|der mtt dem|Zeü- fel|zu fel- * * *||* de ligt, den|
w: des Le- bens|pfort,|wir gehn mit|schal- le,|und sin- * * *||* gen him, weil|
 d2 c2 B2 e2- | e2 d4 c2 | d2 a2 g3 f |1 e2 e2 ^f4 :|2 e2 e2 ^f4 |: z2 g4 f2- | f2 e4 d2- | %30
w: Sig be- helt so|_ offt er|kriegt, so offt _|_ er kriegt,|(offt) er kriegt,|schafft un-|* sern Gren-|
w: er uns hat ge-|liebt al- *|so, Al- le- *|* lu- ja,|(le)- lu- ja,|sein Blut|_ für uns|
 d2 c2 B2 A2 | B4 ^c4 |] %32
w: * tzen fri- *|* de.|
w: _ ver- gos- *|* sen.|
V:3
 e4 A4 | B2 c4 d2 | c2 A2 e4 | z8 | z2 e2 g3 f | e6 d2 | c6 d2 | e8 |[M:2/4] A4 |[M:4/4] e4 A4 | %10
w: Gott Vat-|ter uns sein|Son für- stelt,||dasz wir sein|lieb dran|ken- *||nen|der ist|
w: Und macht|uns se- lig|durch sein Wort,||dem solln wir|glau- ben|al- *||le,|und macht|
 B2 c4 d2 | c2 A2 e4 | z8 | z2 e2 g3 f | e6 d2 | c6 d2 | e8 |[M:2/4] A4 |:[M:4/4] z2 a2 g4 | %19
w: der grosz und|star- cke held,||wie in die|schrifft thut|nen- *||nen,|der mit|
w: uns se- lig|durch sein Wort,||dem solln wir|glau- ben|al- *||le,|wir gehn|
 f4 e4 | d2 g2 fefg | a3 g f4 | g4 c4 | z4 z2 a2 | g2 f2 e4 | d4 g4 |1 a4 d4 :|2 a4 d4 |: %28
w: dem Zeü-|fel zu fel- * * *||de ligt,|den|Sig be- helt|so offt|er kriegt,|er kriegt,|
w: mit schal-|le, und sin- * * *||gen him,|uns|hat ge- liebt,|Al- le-|lu- ja,|lu- ja,|
 z2 c2 d4 | e4 g4 | a4 e4- | e4 A4 |] %32
w: schaft un-|sern Gren-|tzen fri-|* de.|
w: sein Blut|fûr uns|ver- gos-|* sen.|

